**kern	**kern	**dynam
*part1	*part1	*part1
*staff2	*staff1	*
*I"Piano	*	*
*clefF4	*clefG2	*
*k[b-e-a-]	*k[b-e-a-]	*
=1	=1	=1
4C 4G	4c 4en 4g	.
8CL 8G	8cL 8e 8g	.
8CJ 8G	8cJ 8e 8g	.
=	=	=
4C 4G	4c 4en 4g	.
8CL 8G	8cL 8e 8g	.
8CJ 8G	8cJ 8e 8g	.
=	=	=
4C 4G	4c 4en 4g	.
8CL 8G	8cL 8e 8g	.
8CJ 8G	8BnJ 8d 8g	.
=	=	=
4C 4G	4c 4en 4g	.
8CL 8G	8cL 8e 8g	.
8CJ 8G	8cJ 8e 8g	.
=	=	=
*	*^	*
4C 4G	4en 4g	(8cL	.
.	.	8Bn)	.
8CL 8G	8eL 8g	8c	.
8CJ 8G	8dJ 8g	8BJ	.
*	*v	*v	*
=	=	=
4C 4G	4c 4en 4g	.
8CL 8G	8cL 8e 8g	.
8CJ 8G	8cJ 8e 8g	.
=	=	=
4C 4G	4c 4en 4g	<
8CL 8G	8cL 8e 8g	.
8GGJ 8E-X 8G	8B-XJ 8e-X 8g	.
=	=	=
*-	*-	*-
!!!system-decoration: {(s1,s2)}
